X: 34917
T: Rock, The
R: reel
M: 4/4
K: Dmixolydian
|:cBAG ~A3A|EADA EDDB|cBAG BA .A/.A/A|dgfd gfdB|
cBAG AA{B}AG|EADA EDDA|(FG)ED CE~E2|1 GEAG EADB:|2 GEAG EDDB||
|:.A/.A/A GF AD~D2|ADFD C2(E/F/G)|AFGF ADEG|Acde c2(Bc)|
AFGF AD~D2|ADFD C2 (E/F/G)|ABcd edcB|1 (Bc)GE DBcB:|2 (Bc)GE D3B||

